Papirus-nordic/22x22/places/folder-red-android.svg

<svg xmlns="http://www.w3.org/2000/svg" width="22" height="22" version="1"><rect width="20" height="12" x="1" y="8.5" rx="1" ry="1" opacity=".2"/><rect width="20" height="12" x="1" y="8.5" rx="1" ry="1" opacity=".2"/><path d="M1 16c0 .554.446 1 1 1h18c.554 0 1-.446 1-1V5c0-.554-.446-1-1-1H10V3c0-.554-.446-1-1-1H2c-.554 0-1 .446-1 1" fill="#ae4f58"/><rect width="20" height="12" x="1" y="7.5" rx="1" ry="1" opacity=".2"/><rect width="16" height="8" x="3" y="6" rx="1" ry="1" fill="#e4e4e4"/><rect width="20" height="12" x="1" y="8" rx="1" ry="1" fill="#bf616a"/><path d="M2 2c-.554 0-1 .446-1 1v.5c0-.554.446-1 1-1h7c.554 0 1 .446 1 1V3c0-.554-.446-1-1-1zm8 2v.5h10c.554 0 1 .446 1 1V5c0-.554-.446-1-1-1z" fill="#fff" opacity=".1"/><path d="M7 11a1 1 0 0 0-.697 1.717l.674.674c-.48.622-.841 1.52-.967 2.832-.037.77.775.771.775.771l7.43.031s.835 0 .795-.806c-.132-1.311-.496-2.205-.975-2.821l.682-.681A1 1 0 0 0 13.99 11a1 1 0 0 0-.687.303l-.961.961c-.64-.192-1.284-.221-1.789-.229-.545-.009-1.223.015-1.889.215l-.947-.947A1 1 0 0 0 7 11zm1.5 3a.5.5 0 0 1 .5.5.5.5 0 0 1-.5.5.5.5 0 0 1-.5-.5.5.5 0 0 1 .5-.5zm4 0a.5.5 0 0 1 .5.5.5.5 0 0 1-.5.5.5.5 0 0 1-.5-.5.5.5 0 0 1 .5-.5z" fill="#974a4d"/></svg>

<svg xmlns="http://www.w3.org/2000/svg" width="22" height="22" version="1">
 <rect style="opacity:0.2" width="20" height="12" x="1" y="8.5" rx="1" ry="1"/>
 <rect style="opacity:0.2" width="20" height="12" x="1" y="8.5" rx="1" ry="1"/>
 <path style="fill:#ae4f58" d="m1 16c0 0.554 0.446 1 1 1h18c0.554 0 1-0.446 1-1v-11c0-0.554-0.446-1-1-1h-10v-1c0-0.554-0.446-1-1-1h-7c-0.554 0-1 0.446-1 1"/>
 <rect style="opacity:0.2" width="20" height="12" x="1" y="7.5" rx="1" ry="1"/>
 <rect style="fill:#e4e4e4" width="16" height="8" x="3" y="6" rx="1" ry="1"/>
 <rect style="fill:#bf616a" width="20" height="12" x="1" y="8" rx="1" ry="1"/>
 <path style="fill:#ffffff;opacity:0.1" d="m2 2c-0.554 0-1 0.446-1 1v0.5c0-0.554 0.446-1 1-1h7c0.554 0 1 0.446 1 1v-0.5c0-0.554-0.446-1-1-1zm8 2v0.5h10c0.554 0 1 0.446 1 1v-0.5c0-0.554-0.446-1-1-1z"/>
 <path style="fill:#974a4d" d="M 7 11 A 1 1 0 0 0 6.3027 12.717 L 6.9766 13.391 C 6.4972 14.013 6.1357 14.911 6.0098 16.223 C 5.973 16.993 6.7852 16.994 6.7852 16.994 L 14.215 17.025 C 14.215 17.025 15.05 17.025 15.01 16.219 C 14.878 14.908 14.514 14.014 14.035 13.398 L 14.717 12.717 A 1 1 0 0 0 13.99 11 A 1 1 0 0 0 13.303 11.303 L 12.342 12.264 C 11.702 12.072 11.058 12.043 10.553 12.035 C 10.008 12.026 9.3301 12.05 8.6641 12.25 L 7.7168 11.303 A 1 1 0 0 0 7 11 z M 8.5 14 A 0.5 0.5 0 0 1 9 14.5 A 0.5 0.5 0 0 1 8.5 15 A 0.5 0.5 0 0 1 8 14.5 A 0.5 0.5 0 0 1 8.5 14 z M 12.5 14 A 0.5 0.5 0 0 1 13 14.5 A 0.5 0.5 0 0 1 12.5 15 A 0.5 0.5 0 0 1 12 14.5 A 0.5 0.5 0 0 1 12.5 14 z"/>
</svg>
